!!!COM: Palestrina, Giovanni Perluigi da
!!!OPR: Missa Sacerdotes Domini
!!!OMD: Credo
!!!OTL: Crucifixus
**kern	**kern	**kern	**kern
*Ibass	*Itenor	*Icalto	*Icalto
!Bassus	!Tenor	!Altus 2	!Altus 1
*clefF4	*clefGv2	*clefG2	*clefG2
*k[]	*k[]	*k[]	*k[]
*G:mix	*G:mix	*G:mix	*G:mix
*M4/2	*M4/2	*M4/2	*M4/2
=99	=99	=99	=99
0C	0c	0e	0g
=100	=100	=100	=100
1C	1c	1e	1g
1G	1B	2.d	1g
.	.	4e	.
=101	=101	=101	=101
2F	0c	1f	2a
4F	.	.	1a
4G	.	.	.
4A	.	2e	.
4B	.	.	.
[2c	.	[2e	2g
=102	=102	=102	=102
2c]	0r	2e]	2e
2B	.	2d	2.g
2G	.	2B	.
.	.	.	4f
2A	.	2c	[2e
=103	=103	=103	=103
1F	2r	1A	2e]
.	1a	.	2d
1E	.	2B	2.e
.	2g	[2c	.
.	.	.	4f
=104	=104	=104	=104
2r	2e	4c]	2g
.	.	4c	.
2D	2f	2A	2a
4D	1d	1a	1f
4E	.	.	.
4F	.	.	.
4G	.	.	.
=105	=105	=105	=105
1A	1c	1a	2e
.	.	.	2f
2A	1c	1a	2.e
2A	.	.	.
.	.	.	4c
=106	=106	=106	=106
2.G	2.B	1r	2d
.	.	.	2e
4E	4G	.	.
2F	2A	2r	2c
2D	2F	2a	[2d
=107	=107	=107	=107
1E	1G	2.g	4d]
.	.	.	4c
.	.	.	1c
.	.	4e	.
1D	2A	2f	.
.	4G	2d	2B
.	4F	.	.
=108	=108	=108	=108
1C	2G	1e	1c
.	1c	.	.
1r	.	1d	1r
.	2B	.	.
=109	=109	=109	=109
2r	2.A	1c	2r
1c	.	.	1e
.	4B	.	.
.	2c	1r	.
2B	2d	.	2d
=110	=110	=110	=110
2.A	1e	2r	2.c
.	.	1a	.
4G	.	.	4B
2F	1r	.	2A
2E	.	2g	2B
=111	=111	=111	=111
1D	2r	2.f	1d
.	1f	.	.
.	.	4e	.
2D	.	2d	2r
2E	2e	2c	[2g
=112	=112	=112	=112
2G	2.d	2B	2g]
2D	.	2A	2f
.	4c	.	.
1E	2B	2G	1e
.	2A	2c	.
=113	=113	=113	=113
1E	4G	4B	1e
.	2A	4A	.
.	.	2B	.
.	4G#	.	.
1A	1A	1c	2e
.	.	.	2e
=114	=114	=114	=114
0r	0r	2r	2f
.	.	2e	2g
.	.	2f	2a
.	.	2g	2b
=115	=115	=115	=115
1r	0r	2a	2cc
.	.	2b	2g
2r	.	2.cc	2a
2E	.	.	2g
.	.	4b	.
=116	=116	=116	=116
2F	0r	2a	2f
2G	.	4g	1e
.	.	8f	.
.	.	8e	.
2A	.	1f	.
2B	.	.	2d
=117	=117	=117	=117
2.c	2r	0e	1e
.	2c	.	.
4B	.	.	.
2A	2c	.	1r
2G#	2B	.	.
=118	=118	=118	=118
1A	2c	2r	2r
.	4A	2a	2cc
.	4B	.	.
1r	4c	2a	2cc
.	4d	.	.
.	2e	2g#	2b
=119	=119	=119	=119
1F	2A	2a	4cc
.	.	.	4b
.	2c	4f	4a
.	.	4g	4g
2F	1c	4a	2f
.	.	4b	.
2E	.	[2cc	2g
=120	=120	=120	=120
2F	2A	2cc]	[0a
4D	1d	1f	.
4E	.	.	.
4F	.	.	.
4G	.	.	.
2A	2c#	2e	.
=121	=121	=121	=121
1D	2d	1f	0a]
.	2d	.	.
1A	2e	2c	.
.	2f#	2c	.
=122	=122	=122	=122
2B	2g	2d	2r
2c	1a	2A	2e
2d	.	1r	2f
2e	[2g	.	2g
=123	=123	=123	=123
1d	4g]	2r	2a
.	4f	.	.
.	2f	2d	2b
2c	2g	2e	2.cc
2A	2c	2f	.
.	.	.	4a
=124	=124	=124	=124
2G	0d	2g	2b-
2F#	.	2a	2a
1G	.	1b-	1g
=125	=125	=125	=125
2r	1d	2a	2f
2d	.	2f	2a
2.c	1r	2.e	2a
.	.	.	2g
4B	.	4d	.
=126	=126	=126	=126
2A	0r	2c	2f
2G	.	2B	2e
2.A	.	2.c	4f
.	.	.	8e
.	.	.	8d
.	.	.	2e
4G	.	4B	.
=127	=127	=127	=127
2F	0r	2A	0d
2.G	.	4B	.
.	.	4A	.
.	.	4B	.
4F	.	4c	.
2D	.	[2d	.
=128	=128	=128	=128
1E	1g	2d]	1G
.	.	2c#	.
1D	2.f	2d	1A
.	.	2a	.
.	4e	.	.
=129	=129	=129	=129
0r	2d	2f	1a
.	2c#	2e	.
.	2.d	2.f	2a
.	.	.	2a
.	4c	4e	.
=130	=130	=130	=130
0r	2B	2d	2.g
.	2.c	4e	.
.	.	4f	4f
.	.	2.g	4e
.	4B	.	4d
.	2G	.	[2d
.	.	4f	.
=131	=131	=131	=131
1r	1A	1e	2d]
.	.	.	2c#
2r	1f	[1a	1d
2d	.	.	.
=132	=132	=132	=132
2.c	2.e	1a]	4A
.	.	.	4B
.	.	.	4c
4B	4d	.	4d
2A	2c	2r	2e
2G	2d	2b-	2g
=133	=133	=133	=133
1D	1d	2.a	2.f
.	.	4g	4e
1r	1a	2f	2d
.	.	2e	2c#
=134	=134	=134	=134
1D	2.a	2.f	4d
.	.	.	4e
.	.	.	4f
.	4g	4e	4g
2D	2f	2d	[1a
2A	2e	2c#	.
=135	=135	=135	=135
1D	2f	2d	1a]
.	2.d	2f	.
2.E	.	1e	[1g
.	4c	.	.
.	[2c	.	.
4F	.	.	.
=136	=136	=136	=136
0G	2c]	0d	0g]
.	4B	.	.
.	4A	.	.
.	1B	.	.
=137	=137	=137	=137
0C	0c	0e	0g
*-	*-	*-	*-
!!!CDT: 1525/^1526/-1594/2/2
!!!OCY: Italia
!!!AGN: Mass (Canonic)
!!!AST: renaissance, vocal
!!!ASW: Motet (unidentified)
!!!PWK: Masses, Book 8
!!!RNB: Cadence finals: C
!!!YOR: Le Opere Complete, v. 24, p. 157
!!!YOO: Rome, Italy: Fratelli Scalera
!!!END: 1992//
!!!EED: John Miller
!!!YEC: Copyright 2000, John Miller
!!!YEN: United States of America
!!!YEM: Rights to all derivative electronic formats reserved.
!!!YEM: Refer to licensing agreement for further details.
!!!YEM: This file must be accompanied by the licensing agreement.
!!!YEM: A copy of the licensing agreement may be found at http://www.music-cog.ohio-state.edu/HumdrumDatabases/Palestrina/license.txt
!!!EMD: converted to Humdrum by Bret Aarden
